X: 1
T: Ships In Full Sail
M: 6/8
L: 1/8
R: jig
K: Gmaj
DGG BGG|dGG BGG | efg dBG | ABA AGE |
DGG BGG|dGG BGG | efg dBG | ABF G3 :||
dgg bgg |aga bge |dgg bgg |a3 age |
dgg bgg |aga bge | efg dBG | ABF G3 :||
d^cd dBd | e3 efg | ded gdB | A3 ABc |
d^cd dBd | e3 efg | efg dBG | ABF G3 :||
